!!!SOCIAL_FUNCTION:	moccasin game songs
!!!PDT:	1913
!!!OTL: No_126_Moccasin_Game_Song.krn
!!!REG: Great_Lakes
!!!LANG: Non-Tone
!!!LING_GROUP: Algonquin
**kern	**kern
*staff2	*staff1
=1-	=1-
*clefF4	*clefF4
*k[b-e-a-d-g-c-]	*k[b-e-a-d-g-c-]
*M3/4	*M3/4
8GG-^/	8.e-\L
16r	.
16GG-/	16B-\Jk
8GG-^/	4..e-\
16r	.
16GG-/	.
8GG-^/	.
16r	.
16GG-/	16e-\
=2	=2
2.r	8.B-\L
.	16A-\Jk
.	4..B-\
.	16c-\
=3	=3
2.r	8.A-\L
.	16G-\Jk
.	4..A-\
.	16B-\
=4	=4
2.r	8G-\L
.	24E-\K
.	12E-\J
.	4..G-\
.	16A-\
=5	=5
2.r	8G-\L
.	24E-\K
.	12E-\J
.	2E-\
=6	=6
2.r	8.E-\L
.	16E-\Jk
.	4..E-\
.	16A-\
=7	=7
2.r	8.A-\L
.	16G-\Jk
.	4..A-\
.	16B-\
=8	=8
2.r	8G-\L
.	24E-\K
.	12E-\J
.	4..G-\
.	16G-\
=9	=9
2.r	8G-\L
.	24E-\K
.	12E-\J
.	2E-\
==	==
*-	*-
